X:333
T:Troops March 
C:Joe Buchanan's Scottish Tome - Page 114.0
I:114 0
C:Colin Finlayson
R:March
Z:Carl Allison
L:1/8
M:4/4
K:E
B, | "E"E>F GA |"E7" B2 e2 | "A"c>B "B7"Ac | "E"B2 G2 |
"A"A>G "B7"FA | "E"G>F E2 | "F#"F>G FE | "F#m"ED "B"CB, |
"E"E>F "F#m"GA | "Bm"B2 "E7"e>d | "A"c>B "B7"Ac | "E"B2 "C#"G2 |
"F#m"A>G "B7"FA | "E"G>"C"F "C#m"E2 | "F#m"FC "B7"ED | "E"E3 :|
B | "E"e>d "E7"cB | "A"cB "E"B2 | "A"c>B "B7"AG | "E"BG G2 |
"A"Ac "B"BA | "E"G>F "C#m"E2 | "F#"F>G FE | "F#"ED "B7"CB, |
"E"e>d "E7"cB | "A"cB "E"B2 | "A"c>B "B7"AG | "E"BG "C#m"G2 |
"F#m"Ac "B7"BA | "E"G>F "C#m"E2 | "F#m"FC "B7"ED | "E"E3 B |
"E"e>d "E7"cB | "A"cB "E"B2 | "A"c>B "B7"AG | "E"BG G2 |
"A"Ac "B"BA | "E"G>F "C#m"E2 | "F#"F>G FE | "F#"ED "B7"CB, |
"F#m"E>F GA | "Bm"B2 "E7"e>d | "A"c>B "B"Ac | "E"B2 "C#"G2 |
"F#m"A>G "B7"FA | "G#"G>F "C#m"E2 | "F#m"FC "B"ED | "E"E3 |]

